Numix-GalliumOS/16/status/dialog-information.svg

<?xml version="1.0" encoding="UTF-8" standalone="no"?>
<svg
   xmlns:dc="http://purl.org/dc/elements/1.1/"
   xmlns:cc="http://creativecommons.org/ns#"
   xmlns:rdf="http://www.w3.org/1999/02/22-rdf-syntax-ns#"
   xmlns:svg="http://www.w3.org/2000/svg"
   xmlns="http://www.w3.org/2000/svg"
   xmlns:sodipodi="http://sodipodi.sourceforge.net/DTD/sodipodi-0.dtd"
   xmlns:inkscape="http://www.inkscape.org/namespaces/inkscape"
   width="16"
   height="16"
   viewBox="0 0 16 16"
   id="svg2"
   version="1.1"
   inkscape:version="0.91 r"
   sodipodi:docname="stock_dialog-info.svg">
  <metadata
     id="metadata10">
    <rdf:RDF>
      <cc:Work
         rdf:about="">
        <dc:format>image/svg+xml</dc:format>
        <dc:type
           rdf:resource="http://purl.org/dc/dcmitype/StillImage" />
        <dc:title />
      </cc:Work>
    </rdf:RDF>
  </metadata>
  <defs
     id="defs8" />
  <sodipodi:namedview
     pagecolor="#ffffff"
     bordercolor="#666666"
     borderopacity="1"
     objecttolerance="10"
     gridtolerance="10"
     guidetolerance="10"
     inkscape:pageopacity="0"
     inkscape:pageshadow="2"
     inkscape:window-width="1920"
     inkscape:window-height="1056"
     id="namedview6"
     showgrid="true"
     inkscape:zoom="41.7193"
     inkscape:cx="13.342797"
     inkscape:cy="8.1997909"
     inkscape:window-x="0"
     inkscape:window-y="24"
     inkscape:window-maximized="1"
     inkscape:current-layer="svg2">
    <inkscape:grid
       type="xygrid"
       id="grid4138" />
  </sodipodi:namedview>
  <path
     style="fill:#78cf72"
     d="M 3.484375,1.9998125 C 2.660156,1.9998125 2,2.6599685 2,3.4841875 L 2,12.515625 C 2,13.335937 2.660156,14 3.484375,14 l 9.031437,0 c 0.820312,0 1.484375,-0.664063 1.484375,-1.484375 l 0,-9.0314375 c 0,-0.824219 -0.664063,-1.484375 -1.484375,-1.484375 z M 7,4 9,4 9,6 7,6 Z m -1,3 3,0 0,4 1,0 0,1.019531 -4,0 L 6,11 7,11 7,8 6,8 Z"
     id="path4"
     inkscape:connector-curvature="0"
     sodipodi:nodetypes="ssssssssscccccccccccccccc" />
</svg>

<svg xmlns="http://www.w3.org/2000/svg" viewBox="0 0 16 16">
 <path d="m 3.484 2 c -0.824 0 -1.484 0.66 -1.484 1.484 l 0 9.03 c 0 0.82 0.66 1.484 1.484 1.484 l 9.03 0 c 0.82 0 1.484 -0.664 1.484 -1.484 l 0 -9.03 c 0 -0.824 -0.664 -1.484 -1.484 -1.484 z m 3.516 2 2 0 0 2 -2 0 m -1 1 3 0 0 4 1 0 0 1.02 -4 0 l 0 -1.02 1 0 0 -3 -1 0" style="fill:#78cf72"/>
</svg>
